X:106
T:Voici la Saint-Jean
A:Champagne
R:Chanson
O:France
B:Le livre des Chansons (Henri Davenson) n106
Z:<anamnese@laposte.net> -- http://anamnese.fr.st
M:2/4
L:1/8
Q:1/4=105
K:G
G G d d | (ed) G G | d d (ed) | d g d d | d2 Bd |
c B (A G) | G d d c | B2 d A | c B (A HG) ||
W:Voici la Sain Jean, l'heureuse journe
W:Que nos amoureux ont  l'assemble
W:Marchons Joli coeur la lune est leve.
